img/list_icon.svg

<?xml version="1.0" encoding="UTF-8"?>
<!-- Generated by Pixelmator Pro 3.1.1 -->
<svg width="100" height="100" viewBox="0 0 100 100" xmlns="http://www.w3.org/2000/svg" xmlns:xlink="http://www.w3.org/1999/xlink">
    <path id="path1" fill="#currentcolor" fill-rule="evenodd" stroke="none" d="M 3.097893 21.020882 L 80.049568 21.020882 C 81.784386 21.020882 83.230072 19.657814 83.230072 17.881683 C 83.230072 16.146866 81.784386 14.783791 80.049568 14.783791 L 3.097893 14.783791 C 1.363073 14.783791 0 16.146866 0 17.881683 C 0 19.657814 1.363073 21.020882 3.097893 21.020882 Z M 3.097893 42.664833 L 28.913671 42.664833 C 30.689798 42.664833 32.094177 41.301758 32.094177 39.525635 C 32.094177 37.790813 30.689798 36.427738 28.913671 36.427738 L 3.097893 36.427738 C 1.363073 36.427738 0 37.790813 0 39.525635 C 0 41.301758 1.363073 42.664833 3.097893 42.664833 Z M 45.477077 85.498375 L 94.382484 85.498375 C 97.810822 85.498375 100 83.350502 100 79.96347 L 100 42.375694 C 100 39.071278 97.810822 36.882099 94.382484 36.882099 L 45.477077 36.882099 C 42.04874 36.882099 39.859562 39.071278 39.859562 42.375694 L 39.859562 79.96347 C 39.859562 83.350502 42.04874 85.498375 45.477077 85.498375 Z M 45.807518 48.695396 C 44.981411 48.695396 44.444443 48.117126 44.444443 47.332325 L 44.444443 42.78875 C 44.444443 41.962643 44.981411 41.384369 45.807518 41.384369 L 49.690212 41.384369 C 50.557621 41.384369 51.094589 41.962643 51.094589 42.78875 L 51.094589 47.332325 C 51.094589 48.117126 50.557621 48.695396 49.690212 48.695396 Z M 90.16935 48.695396 C 89.301941 48.695396 88.764977 48.117126 88.764977 47.332325 L 88.764977 42.78875 C 88.764977 41.962643 89.301941 41.384369 90.16935 41.384369 L 94.052048 41.384369 C 94.878151 41.384369 95.415115 41.962643 95.415115 42.78875 L 95.415115 47.332325 C 95.415115 48.117126 94.878151 48.695396 94.052048 48.695396 Z M 56.836018 58.112995 C 56.05122 58.112995 55.555557 57.617332 55.555557 56.791225 L 55.555557 44.358349 C 55.555557 43.532242 56.05122 43.036579 56.836018 43.036579 L 83.023544 43.036579 C 83.808342 43.036579 84.304008 43.532242 84.304008 44.358349 L 84.304008 56.791225 C 84.304008 57.617332 83.808342 58.112995 83.023544 58.112995 Z M 45.807518 59.434761 C 44.981411 59.434761 44.444443 58.856487 44.444443 58.154301 L 44.444443 53.569416 C 44.444443 52.743313 44.981411 52.165039 45.807518 52.165039 L 49.690212 52.165039 C 50.557621 52.165039 51.094589 52.743313 51.094589 53.569416 L 51.094589 58.154301 C 51.094589 58.856487 50.557621 59.434761 49.690212 59.434761 Z M 90.16935 59.434761 C 89.301941 59.434761 88.764977 58.856487 88.764977 58.154301 L 88.764977 53.569416 C 88.764977 52.743313 89.301941 52.165039 90.16935 52.165039 L 94.052048 52.165039 C 94.878151 52.165039 95.415115 52.743313 95.415115 53.569416 L 95.415115 58.154301 C 95.415115 58.856487 94.878151 59.434761 94.052048 59.434761 Z M 3.097893 64.308777 L 28.913671 64.308777 C 30.689798 64.308777 32.094177 62.904404 32.094177 61.169582 C 32.094177 59.434761 30.689798 58.07169 28.913671 58.07169 L 3.097893 58.07169 C 1.363073 58.07169 0 59.434761 0 61.169582 C 0 62.904404 1.363073 64.308777 3.097893 64.308777 Z M 45.807518 70.174126 C 44.981411 70.174126 44.444443 69.637161 44.444443 68.893661 L 44.444443 64.308777 C 44.444443 63.482677 44.981411 62.904404 45.807518 62.904404 L 49.690212 62.904404 C 50.557621 62.904404 51.094589 63.482677 51.094589 64.308777 L 51.094589 68.893661 C 51.094589 69.637161 50.557621 70.174126 49.690212 70.174126 Z M 90.16935 70.174126 C 89.301941 70.174126 88.764977 69.637161 88.764977 68.893661 L 88.764977 64.308777 C 88.764977 63.482677 89.301941 62.904404 90.16935 62.904404 L 94.052048 62.904404 C 94.878151 62.904404 95.415115 63.482677 95.415115 64.308777 L 95.415115 68.893661 C 95.415115 69.637161 94.878151 70.174126 94.052048 70.174126 Z M 56.836018 79.302582 C 56.05122 79.302582 55.555557 78.806923 55.555557 77.98082 L 55.555557 65.67186 C 55.555557 64.804443 56.05122 64.308777 56.836018 64.308777 L 83.023544 64.308777 C 83.808342 64.308777 84.304008 64.804443 84.304008 65.67186 L 84.304008 77.98082 C 84.304008 78.806923 83.808342 79.302582 83.023544 79.302582 Z M 45.807518 80.954796 C 44.981411 80.954796 44.444443 80.417831 44.444443 79.633026 L 44.444443 75.048141 C 44.444443 74.222038 44.981411 73.643768 45.807518 73.643768 L 49.690212 73.643768 C 50.557621 73.643768 51.094589 74.222038 51.094589 75.048141 L 51.094589 79.633026 C 51.094589 80.417831 50.557621 80.954796 49.690212 80.954796 Z M 90.16935 80.954796 C 89.301941 80.954796 88.764977 80.417831 88.764977 79.633026 L 88.764977 75.048141 C 88.764977 74.222038 89.301941 73.643768 90.16935 73.643768 L 94.052048 73.643768 C 94.878151 73.643768 95.415115 74.222038 95.415115 75.048141 L 95.415115 79.633026 C 95.415115 80.417831 94.878151 80.954796 94.052048 80.954796 Z M 3.097893 85.911423 L 28.913671 85.911423 C 30.689798 85.911423 32.094177 84.548355 32.094177 82.81353 C 32.094177 81.078712 30.689798 79.674332 28.913671 79.674332 L 3.097893 79.674332 C 1.363073 79.674332 0 81.078712 0 82.81353 C 0 84.548355 1.363073 85.911423 3.097893 85.911423 Z"/>
</svg>

<svg width="100" height="100" viewBox="0 0 100 100" xmlns="http://www.w3.org/2000/svg" xmlns:xlink="http://www.w3.org/1999/xlink">
	<path id="path1" fill="#currentcolor" fill-rule="evenodd" stroke="none" d="M3.1 21.02h76.95a3.15 3.15 0 0 0 3.18-3.14c0-1.73-1.45-3.1-3.18-3.1H3.1a3.07 3.07 0 0 0-3.1 3.1 3.08 3.08 0 0 0 3.1 3.14Zm0 21.64h25.8a3.12 3.12 0 1 0 0-6.23H3.1a3.07 3.07 0 0 0-3.1 3.1 3.08 3.08 0 0 0 3.1 3.13ZM45.48 85.5h48.9c3.43 0 5.62-2.15 5.62-5.54V42.38c0-3.3-2.19-5.5-5.62-5.5h-48.9c-3.43 0-5.62 2.2-5.62 5.5v37.58c0 3.4 2.19 5.54 5.62 5.54Zm.33-36.8a1.3 1.3 0 0 1-1.37-1.37V42.8c0-.83.54-1.4 1.37-1.4h3.88c.87 0 1.4.57 1.4 1.4v4.54c0 .79-.53 1.37-1.4 1.37Zm44.36 0c-.87 0-1.4-.58-1.4-1.37V42.8c0-.83.53-1.4 1.4-1.4h3.88c.83 0 1.37.57 1.37 1.4v4.54a1.3 1.3 0 0 1-1.37 1.37Zm-33.33 9.4c-.79 0-1.28-.5-1.28-1.32V44.36c0-.83.5-1.32 1.28-1.32h26.18c.79 0 1.28.5 1.28 1.32v12.43c0 .83-.5 1.32-1.28 1.32ZM45.8 59.43c-.83 0-1.37-.57-1.37-1.28v-4.58c0-.83.54-1.4 1.37-1.4h3.88c.87 0 1.4.57 1.4 1.4v4.58c0 .7-.53 1.28-1.4 1.28Zm44.36 0c-.87 0-1.4-.57-1.4-1.28v-4.58c0-.83.53-1.4 1.4-1.4h3.88c.83 0 1.37.57 1.37 1.4v4.58c0 .7-.54 1.28-1.37 1.28ZM3.1 64.31h25.8a3.11 3.11 0 1 0 0-6.24H3.1a3.07 3.07 0 0 0-3.1 3.1 3.1 3.1 0 0 0 3.1 3.14Zm42.7 5.86c-.82 0-1.36-.53-1.36-1.28v-4.58c0-.83.54-1.4 1.37-1.4h3.88c.87 0 1.4.57 1.4 1.4v4.58c0 .75-.53 1.28-1.4 1.28Zm44.37 0c-.87 0-1.4-.53-1.4-1.28v-4.58c0-.83.53-1.4 1.4-1.4h3.88c.83 0 1.37.57 1.37 1.4v4.58c0 .75-.54 1.28-1.37 1.28ZM56.84 79.3c-.79 0-1.28-.5-1.28-1.32v-12.3c0-.88.5-1.37 1.28-1.37h26.18c.79 0 1.28.5 1.28 1.36v12.31c0 .83-.5 1.32-1.28 1.32ZM45.8 80.95c-.83 0-1.37-.53-1.37-1.32v-4.58c0-.83.54-1.4 1.37-1.4h3.88c.87 0 1.4.57 1.4 1.4v4.58c0 .79-.53 1.32-1.4 1.32Zm44.36 0c-.87 0-1.4-.53-1.4-1.32v-4.58c0-.83.53-1.4 1.4-1.4h3.88c.83 0 1.37.57 1.37 1.4v4.58c0 .79-.54 1.32-1.37 1.32ZM3.1 85.91h25.8a3.11 3.11 0 1 0 0-6.24H3.1A3.1 3.1 0 0 0 0 82.81c0 1.74 1.36 3.1 3.1 3.1Z"/>
</svg>
